X:167
T:Half Moon, The
M:6/8
L:1/8
B:Thompson's Compleat Collection of 200 Favourite Country Dances, vol. 3 (London, 1773)
Z:Transcribed and edited by Flynn Titford-Mock, 2007
Z:abc's:AK/Fiddler's Companion
K:G
G | d>ed d>ed | e2f g2d | d>ed d>ed | c2A A2G | d>ed d>ed | e2f gag | fed Ad^c | (d3 d2) :|
|: d | d>ed d>ed | c2A A2B | c>dc edc | B2G G2d | d>ed d>ed | e2f gfe | dcB cBA | (G3 G2) :|

